X:1
T: Ca' the Wethers to the Hill
C:
R:Strathspey
Q: 128
K:A
M:4/4
L:1/16
|:c2|Aa3 a3g f3e a3c|Aa3 a3c B3c d3B|Aa3 a3g f3e a3c|df3 e3c B4 A2c2|
Aa3 a3g f3e a3c|Aa3 a3c B3c d3B|Aa3 a3g f3e a3c|df3 e3c B4 A2d2|
c3A e3c AAA2 e4|d3f e3c B3c d3B|c3A e3c AAA2 e4|df3 e3c B4 A2d2|
c3A e3c AAA2 e4|d3f e3c B3c d3B|A3a g3a f3a e3a|df3 e3c B4 A2:|
